X:1
T:Partita VI Toccata
T:BWV 830
T:J. S. Bach
%%score { ( 1 2 4 6 ) | ( 3 5 7 ) }
L:1/8
Q:1/4=96
M:2/2
K:G
V:1 treble nm="Harp"
V:2 treble 
V:4 treble 
V:6 treble 
V:3 bass 
V:5 bass 
V:7 bass 
V:1
"^Andante" z z/4 G/4B/4e/4 g>g g2 f2 | z z/4 ^D/4F/4G/4 A>A [DFA]2 [EG]2 | %2
 (7:4:7C/E/G/A/B/A/G/ (7:4:7F/^A/^c/^d/e/d/c/ (7:4:7B/d/f/g/a/g/f/ (7:4:7d/f/a/b/c'/b/a/ | %3
 (7:4:7E/G/B/c/d/c/B/ (7:4:7A/c/e/f/g/f/e/ (7:4:7D/F/A/B/c/B/A/ (7:4:7G/B/^d/e/f/e/d/ | %4
 z z/4 G/4B/4e/4 g>g g/f/e/f/4g/4{d} ^c2 | z z/4 F/4A/4^c/4 f>f f/e/d/e/4f/4{c} B2 | %6
 (7:4:7G/B/^c/d/e/d/c/ (7:4:7F/^A/B/c/d/c/B/ (7:4:7E/G/A/B/c/B/A/ (7:4:7^C/A/e/f/g/f/e/ | %7
 f>[GB] [G^c]>[F^A] A2 B/=A/G/F/ | G/^A/B/^c/ B/A/B/G/ F/A/B/c/ B/A/B/F/ | %9
 E/B/^c/d/ c/B/c/E/ D/F/^G/^A/ B/F/d/B/ | eBGe dBFd | ^c^AEA BFD z | %12
 z z/4 B/4e/4^g/4 b>[Bd] [Bd]2 [Ac]2 | z z/4 A/4d/4f/4 a>[Ac] [Ac]2 [GB]2 | %14
[I:staff +1] (7:4:7^G,/B,/[I:staff -1]D/E/=F/E/D/[I:staff +1] (7:4:7A,/C/[I:staff -1]^D/E/^F/E/D/[I:staff +1] (7:4:7^A,/^C/[I:staff -1]E/F/G/F/E/[I:staff +1] (7:4:7B,/=D/[I:staff -1]^E/F/^G/F/E/ | %15
 (7:4:7C/^D/F/G/A/G/F/ (7:4:7^C/E/G/A/_B/A/G/ (7:4:7=D/=F/^G/A/=B/A/G/ (7:4:7^D/^F/A/B/c/B/A/ | %16
 z z/4 G/4B/4e/4 g>g g2 f2 | z z/4 B/4d/4f/4 ^g>g g2 a2 | %18
 (7:4:7c/e/f/g/a/g/f/ (7:4:7B/^d/e/f/g/f/e/ (7:4:7A/c/d/e/f/e/d/ (7:4:7F/d/a/b/c'/b/a/ | %19
 b>[ce] [cf]>[B^d] d2 e/=d/c/B/ | c/^d/e/f/ e/d/e/c/ B/d/e/f/ e/d/e/B/ | %21
 A/e/f/g/ f/e/f/A/ G/F/G/B/ e/B/g/e/ | Aec'A GebG | F^dad EBg z | %24
 z z/4 ^A/4^c/4e/4 g>f e/4^d/4e/4d/4e/4d/4c/4B/4 e>E | G/4F/4GA/8G/8F/8G/8 A>F F2 E z | z8 | z8 | %28
 z4 z2 z B, | C/4B,/4C/4B,/4^A, z ^C D/4C/4D/4C/4B, z D | E/4D/4E/4D/4^C/D/ EG, F,^A,B,D | %31
 E,^CF,^A, B,/C/ D2 B, | ^C/D/ E2 C ^D/E/ F2 E/D/ | z2 z E E^D z F | FE z G GF/G/ A=C | %35
 B,^DEG A,FB,D | E/G/F/E/ D/F/E/D/ ^C/E/F/G/ A,/G/F/E/ | D/F/E/D/ ^C/E/D/C/ B,/D/E/F/ G,/F/E/D/ | %38
 ^C/E/D/C/ B,/D/C/B,/ ^A,/C/D/E/ F,/E/D/C/ | B,/D/E/F/ ^G,/F/E/D/ ^C/E/F/G/ ^A,/G/F/E/ | %40
 D/F/^G/^A/ B,/=A/=G/F/ E/^G/^A/B/ ^C/D/E- | E>E D/^C/B,- B,/B,B,/ ^A,/B,/C/F,/ | %42
 D/^C/B,/^A,/ B,/C/D/F,/ E/D/C/B,/ C/D/E/A,/ | F/E/^D/^C/ D/E/F/B,/ E/F/ G2 E | %44
 F/G/ A2 F ^G/A/ B2 A/G/ | c/B/A/^G/ A/B/c/E/ A/=G/F/E/ F/G/A | AG z B BA z/ G/F/E/ | %47
 ^DB- B/d/c/B/ c/AA/- A/AA/- | A/AA/- A/GG/- G/GG/- G/GG/ | G/GG/- G/F=F/- F/FF/- F/FF/ | %50
 EAAG FBBA | GccB Addc | B2- B/G/B/d/ c2- c/A/c/e/ | d2- d/B/d/=f/ e2- e/c/e/g/ | %54
 f/e/d- d/d/g/d/ e2- e/A/d/A/ | B4 A4 | G4 F2 z d | d^c z e ed z f | fe/f/ gB A^cdf | %59
 GeA^c d2 z B | BA z d dc z =f | =fe z e ed z d | dc z c cBBA | A^G z/ e/d/c/ B/d/e/=f/ G/f/e/d/ | %64
 c/e/f/^g/ A/=g/=f/e/ d/^f/^g/a/ B/c/d/A/ | ^G/=f/e/d/ c/B/A- A/G/A/B/ D/=F/E/D/ | %66
 C/E/A/c/ B/A/B/e/ A/c/B/A/ G/=F/G/c/ | =F/A/G/F/ E/D/E/A/ D/F/E/D/ Cc | %68
 d/4c/4d/B z B/4c/4d/ e/4d/4e/4d/4c z c/4d/4e/ | =f/4e/4f/4e/4d/e/ fA GA/B/ ce | %70
 =FdGB c2- c/_B/A/G/ | A/B/c/d/ c/B/c/A/ G/B/c/d/ c/B/c/G/ | =F/c/d/e/ d/c/d/F/ E/D/E/G/ c/B/c/e/ | %73
 ad- d/A/B/d/ gc- c/G/A/c/ | =f/e/d/c/ B/d/B/G/ E/=F/G/E/ Ce | dA=Fd cAEc | B^GDG AECA | %77
 B/4A/4B/4A/4^G z B c/4B/4c/4B/4A z c | cB z A AG z B | B^A z ^c cB z d | d^c z B B^A z/ f/e/d/ | %81
 ^c/e/f/g/ ^A/g/f/e/ d/f/^g/^a/ B/=a/=g/f/ | e/B/e/f/ g2- g/-g/f/e/ d2- | %83
 d/^c/e/B/ ^A z z2 z/ F/d/B/ | g2- g>g f2- f>f | e2- e>e d/^c/d/e/ f2- | %86
 f/^c/d/e/ d/c/d- d/c/d/e/ d/c/d- | d/B/^c/d/ c/B/c- c/^E/^G/B/- B/B^A/ | %88
 z z/4 D/4F/4B/4 d>d d2 ^c2 | z z/4 ^A,/4^C/4D/4 E>E [A,CE]2 [B,D]2 | %90
 (7:4:7B,/D/F/G/A/G/F/ (7:4:7E/G/B/^c/d/c/B/ (7:4:7A,/^C/E/F/G/F/E/ (7:4:7D/F/^A/B/c/B/A/ | %91
 (7:4:7G,/B,/D/E/F/E/D/ (7:4:7^C/^E/^G/^A/B/A/G/ (7:4:7F/A/^c/d/e/d/c/ (7:4:7A/c/e/f/g/f/e/ | %92
 z z/4 D/4F/4B/4 d>d d2 ^c2 | %93
 (7:4:7E/G/^A/B/^c/B/A/ (7:4:7^D/F/=A/B/=c/B/A/ (7:4:7=D/=F/^G/A/B/A/G/ (7:4:7C/E/=G/A/_B/A/G/ | %94
 (7:4:7E/G/^A/B/^c/B/A/ (7:4:7^D/F/=A/B/=c/B/A/ (7:4:7=D/=F/^G/A/B/A/G/ (7:4:7^C/E/=G/A/_B/A/G/ | %95
 (7:4:7C/^D/F/G/A/G/F/[I:staff +1] (7:4:7B,/=D/[I:staff -1]^E/F/^G/F/E/[I:staff +1] (7:4:7^A,/^C/[I:staff -1]=E/F/=G/F/E/[I:staff +1] (7:4:7=A,/=C/[I:staff -1]^D/E/F/E/D/ | %96
 z z/4 B/4d/4=f/4 b>[^gb] [gb]2 a2 | z z/4 A/4c/4f/4 a>[^dfa] [dfa]2 [eg]2 | %98
 z4 z2[I:staff +1] (7:4:7G,/B,/[I:staff -1]^D/E/F/E/D/ | %99
 (7:4:7C/E/G/A/B/A/G/ (7:4:7F/^A/^c/^d/e/d/c/ (7:4:7B/d/f/g/a/g/f/ (7:4:7d/f/a/b/c'/b/a/ | %100
 z z/4 G/4B/4e/4 g>g g>e{e} =f2 | B,/D/4=F/4 ^G/4B/4d/4=f/4 ^g>[eg] g2 a2 | %102
 (7:4:7c/e/f/g/a/g/f/ (7:4:7B/^d/e/f/g/f/e/ (7:4:7A/c/d/e/f/e/d/ (7:4:7F/d/a/b/c'/b/a/ | %103
 b>[ce] [cf]>[B^d] !fermata!e4 | z8 | %105
[I:staff +1] (7:4:7^G,/B,/[I:staff -1]D/E/=F/E/D/[I:staff +1] (7:4:7A,/C/[I:staff -1]^D/E/^F/E/D/[I:staff +1] (7:4:7^A,/^C/[I:staff -1]E/F/G/F/E/[I:staff +1] (7:4:7B,/=D/[I:staff -1]^E/F/^G/F/E/ | %106
 (7:4:7C/^D/F/G/A/G/F/ (7:4:7^C/E/G/A/_B/A/G/ (7:4:7=D/^E/^G/A/=B/A/G/ (7:4:7^D/F/A/B/c/B/A/ | %107
 G>eF>[AB^d] [Ad]2 [^Ge]2 |] %108
V:2
 z4 [Ac]4 | z4[I:staff +1] C2 B,2 | x161/20 | x161/20 |[I:staff -1] z4 [EA]4 | z4 [DG]4 | x161/20 | %7
 z z/ D/ E>[^CE] F4 | x8 | x8 | x8 | x8 | x8 | x8 | x161/20 | x161/20 | z4 [EAc]4 | z4 [Ace]4 | %18
 x161/20 | z z/ G/ A>[FA] B4 | x8 | x8 | x8 | x8 | z4 [FB]2 E3/2 z/ | E2- E>^D D2 E z | x8 | x8 | %28
 x8 | x8 | x8 | x8 | x8 | E/F/G/ z/ G/[I:staff +1]B,/A,/G,/ F,/A,/B,/C/ ^D,/C/B,/A,/ | %34
 G,/B,/^C/^D/ E,/=D/=C/B,/ A,/^C/^D/E/ F,/G,/A,- | %35
 A,/A,/G,/F,/ G,/F,/E,- E,/E,/^D,/^C,/ D,/E,/F,/B,,/ | G,[I:staff -1] z z2 z[I:staff +1] ^C,E,A, | %37
 F,[I:staff -1] z z2 z[I:staff +1] B,,D,G, | E,[I:staff -1] z z2 z[I:staff +1] ^A,,^C,F, | %39
 D,B,, D,=G, E,^C, E,^A, | F,D, F,B,[I:staff -1] E2 z z/[I:staff +1] B,/ | %41
 ^A,/^C/F,- F,>F, G,E, ^C,2 | B,,/[I:staff -1] z/ z z2 z4 | x8 | x8 | z2 z z/ E/ E^D z F | %46
 FE z G GF/G/ AC |[I:staff +1] B,[I:staff -1]^DEG A,FB,D | EB,ED ^CEA,C | DA,DC B,DG,B, | %50
 C z z E ED z F | FE z G GF z A- | A/F/G/D/ E2- E/G/A/E/ F2- | F/A/B/F/ G2- G/B/c/G/ A2- | %54
 A>c B2- B/B/c/E/ F2- | F/F/E/D/ E/F/G/^C/- C/E/D/C/ D/E/F/B,/- | %56
 B,/D/^C/B,/ C/D/E/A,/- A,/C/D/E/ F/G/A/F/ | GEA^c AFAd | B2- B/f/e/d/ ^c/B/A/G/ A z | z4 z AA^G | %60
 z ccB z eed | z ddc z ccB | z BBA z DDC | %63
 C[I:staff +1]B,B,A, B,/4A,/4B,/4A,/4^G,[I:staff -1] z[I:staff +1] B, | %64
 B,A,[I:staff -1] z[I:staff +1] C CB,/C/ D=F, | E,^G,A,C D,B, E,G, | A,[I:staff -1]=FFE z DDC | %67
 z[I:staff +1] B,B,A,[I:staff -1] z[I:staff +1] G,- G,/E,/=F,/D,/ | x8 |[I:staff -1] z4 E4- | %70
 ED z =F- F/F/E/D/ EC | x8 | x8 | x8 | x8 | x8 | x8 | x8 | E^D z F FE z G | GF z E ED z F | %80
 F^E z ^G GF z2 | x8 | z2 z/ ^c/d/e/ ^A2 z/ A/B/F/ | G z z/ G/F/E/ D/^C/D/F/ B, z | %84
 z/ ^A/B/^c/ B/A/B- B/A/B/c/ B/A/B- | B/B/^c/d/ c/B/c- c2- c/B/c/d/ | G2- G>G F2- F>F | %87
 E2- E>E D2 ^C=E | z4 [EG]4 | x8 | x161/20 | x161/20 | z4 G4 | x161/20 | x161/20 | x161/20 | %96
 z2 z z/ d/ [^Gd]2 [Ac]2 | z2 z z/ c/ c2 B2 | x161/20 | x161/20 | z4 [EAc]4 | %101
 z2 z z/ [Bd]/ [Bd]2 [Ac]2 | x161/20 | z z/ G/ A>F E4 | x161/20 | x161/20 | x161/20 | %107
 z2 F2 [EB]4 |] %108
V:3
 E,/G,/4B,/4E/4 z/4 z/ z2 [E,A,C]4 | ^D,/F,/4A,/4C/4 z/4 z/ z2 E,4 | z8 | z8 | %4
 E,/G,/4B,/4E/4 z/4 z/ z2 [A,^C]4 | D,/F,/4A,/4D/4 z/4 z/ z2 [G,B,]4 | z8 | D>G, E,>F, B,4 | %8
 EB,G,E DB,F,D | ^C^A,E,A, B,F,D,F, | G,/^A,/B,/^C/ B,/A,/B,/G,/ F,/A,/B,/C/ B,/A,/B,/F,/ | %11
 E,/B,/^C/D/ C/B,/C/E,/ D,/^C,/D,/F,/ B,/F,/D/B,/ | ^G,/B,/4D/4E/4 z/4 z/ z2 [A,E]4 | %13
 F,/A,/4C/4D/4 z/4 z/ z2 [G,D]4 | z8 | z8 | E,/G,/4B,/4E/4 z/4 z/ z2 [A,C]4 | %17
 B,/D/4F/4^G/4 z/4 z/ z2 [CE]4 | z8 |[I:staff -1] G>[I:staff +1]C A,>B, E,4 | AECA GEB,G | %21
 F^DA,D EB,G,B, | C/^D,/E,/F,/ E,/D,/E,/C/ B,/D,/E,/F,/ E,/D,/E,/B,/ | %23
 A,/E,/F,/G,/ F,/E,/F,/A,/ G,/F,/G,/B,/ E/G/^C/E/ | ^A,/^C/4E/4G/4 z/4 z/ z2 B,2 B,>=C | %25
 B,>C B,>A, B,4 | F,/4E,/4F,/4E,/4^D, z F, G,/4F,/4G,/4F,/4E, z G, | %27
 A,/4G,/4A,/4G,/4F,/G,/ A,C, B,,^D,E,G, | A,,F,B,,^D, E,/G,/F,/E,/ =D,/F,/E,/D,/ | %29
 ^C,/E,/F,/G,/ ^A,,/G,/F,/E,/ D,/F,/^G,/^A,/ B,,/=A,/=G,/F,/ | %30
 E,/^G,/^A,/B,/ ^C,/D,/E,- E,/E,/D,/C,/ D,/C,/B,,- | %31
 B,,/B,,/^A,,/^G,,/ A,,/B,,/^C,/F,,/ D,/C,/B,,/A,,/ B,,/C,/D,/F,,/ | %32
 E,/D,/^C,/B,,/ C,/D,/E,/F,,/ F,/E,/^D,/C,/ D,/E,/F,/A,,/ | %33
 G,/F,/E,/^D,/ E,/=D,/C,/B,,/ A,,2 B,,2 | E,2 E,2 F,2 F,>E, | ^D,B,, z z/ G,,/ C,A,, B,,2 | %36
 z E,,F,,G,, A,, z z2 | z D,,E,,F,, G,, z z2 | z ^C,,D,,E,, F,, z z2 | z2 z B,, B,,^A,, z ^C, | %40
 ^C,B,, z D, E,/4D,/4E,/4D,/4C,/D,/ E,G,, | F,,^A,,B,,D, E,,^C,F,,A,, | %42
 B,,/^C,/ D,2 B,, C,/D,/ E,2 C, | ^D,/E,/ F,2 E,/D,/ G,/F,/E,/D,/ E,/F,/G,/^C,/ | %44
 A,/G,/F,/E,/ F,/G,/A,/^D,/ B,/A,/^G,/F,/ G,/A,/B,/E,/ | %45
 A,/B,/C- C/B,/A,/G,/ F,/A,/B,/C/ ^D,/C/B,/A,/ | G,/B,/^C/^D/ E,/=D/=C/B,/ A,/^C/^D/E/ F,/G,/A,- | %47
 A,/A,/G,/F,/ G,/F,/E,- E,/E,/^D,/^C,/ D,/E,/F,/B,,/ | E,E,, z E, A,^C, z A,, | %49
 D,D,, z D, G,B,, z G,, | C,/D,/E,/D,/ ^C,/E,/A,,/C,/ D,/E,/F,/E,/ ^D,/F,/B,,/D,/ | %51
 E,/F,/G,/F,/ E,/G,/C,/E,/ F,/G,/A,/G,/ F,/A,/D,/F,/ | G,G,, z G, A,/4G,/4A,/4G,/4F, z A, | %53
 B,/4A,/4B,/4A,/4G, z B, C/4B,/4C/4B,/4A,/B,/ CE, | D,F,G,B, C,A,D,F, | G,,G,^C,E, F,,F,B,,D, | %56
 E,,E,A,,^C, D,,/A,,/B,,/C,/ D,/E,/F,/D,/ | E,/G,/A,/B,/ ^C,/B,/A,/G,/ F,/A,/B,/^C/ D,/=C/B,/A,/ | %58
 G,/B,/^C/D/ E,/F,/G,- G,/G,/F,/E,/ F,/G,/A,/D,/ | %59
 B,/D,/^C,/B,,/ C,/D,/E,/A,,/ F,/E,/D,/=C,/ B,,/C,/D,/B,,/ | %60
 C,/E,/A,/G,/ F,/^G,/A,/F,/ G,/E,/A,/=G,/ F,/^G,/A,/C/ | %61
 B,/A,/^G,/F,/ G,/E,/A,/=G,/ F,/C/F,/E,/ F,/D,/G,/=F,/ | %62
 E,/B,/E,/D,/ E,/C,/=F,/E,/ D,/E,/F,/^G,,/ A,,/B,,/C,/^D,,/ | E,,/E,/D,/E,/ C,2 D,2 E,2 | %64
 A,,/^G,/A,/B,/ C/B,/A,/=G,/ F,=F, z B,, | C,2 z =F,/E,/ F,D, E,2 | A,,A, z G, G,=F, z E, | %67
 E,D, z C, C,B,, A,,2 | E,/C,/D,/B,,/ G,,/B,,/D,/=F,/ E,/D,/E,/C,/ G,,/C,/E,/G,/ | %69
 =F,/E,/F,/G,/ A,/B,/C/D/ z/ D/C/B,/ A,/G,/F,/E,/ | D,/C,/B,,/A,,/ G,,/=F,,/E,,/D,,/ C,, z z2 | %71
[I:staff -1] =FCA,F EC[I:staff +1]G,E | DB,G,B, CG,E,C, | =F,/E,/F,/A,/ DF,- F,/D,/E,/G,/ CE,- | %74
 E,/C,/D,/=F,/ G,/F,/G,/B,/ CC, z/ E/C/A,/ | %75
 =F,/^G,/A,/B,/ A,/G,/A,/F,/ E,/G,/A,/B,/ A,/G,/A,/E,/ | %76
 D,/A,/B,/C/ B,/A,/B,/D,/ C,/B,,/C,/E,/ A,/E,/C/A,/ | %77
 E/B,/C/D/ ^G,/[I:staff -1]=F/E/D/ C/E/^F/^G/ A,E | %78
[I:staff +1] F,/A,/B,/C/ ^D,/C/B,/A,/ G,/B,/^C/^D/ E,/F,/E,/=D,/ | %79
 ^C,/E,/F,/G,/ ^A,,/G,/F,/E,/ D,/F,/^G,/^A,/ B,,/C,/B,,/=A,,/ | %80
 ^G,,/B,,/^C,/D,/ ^E,,/G,,/F,,/=F,,/ ^F,,/C,,/F,,/G,,/ ^A,,/F,,/B,, | %81
 ^C,/4B,,/4C,/4B,,/4^A,, z C, D,/4C,/4D,/4C,/4B,, z D, | %82
 E,/4D,/4E,/4D,/4^C,/D,/ E,G,, F,,^A,,B,,D, | E,,^C,F,,^A,, B,,F,,D,B,, | E,B,GE, D,B,FD, | %85
 ^C,^A,EA, B,F,D,B,, | E,/^A,/B,/^C/ B,/A,/B,/E,/ D,/A,/B,/C/ B,/A,/B,/D,/ | %87
 ^C,/^G,/^A,/B,/ A,/G,/A,/C,/ B,,^E,,F,,F, | B,,/D,/4F,/4B,/4 z/4 z/ z2 [B,,E,G,]4 | %89
 ^A,,/^C,/4E,/4G,/4 z/4 z/ z2 G,2 F,2 | z8 | z8 | B,,/D,/4F,/4B,/4 z/4 z/ z2 [E,G,B,]4 | z8 | z8 | %95
 z8 | ^G,/B,/4D/4=F/4 z/4 z/ z2 [CE]4 | ^D,/F,/4A,/4C/4 z/4 z/ z2 [E,E]4 | %98
 (7:4:7E,,/G,,/B,,/C,/D,/C,/B,,/ (7:4:7A,,/C,/E,/F,/G,/F,/E,/ (7:4:7D,/F,/A,/B,/C/B,/A,/ z2 | z8 | %100
 E,/G,/4B,/4E/4 z/4 z/ z2 [A,C]4 | z4 [CE]4 | z8 | G>C A,>B, [E,G,^C]4 | %104
 (7:4:7E,/G,/^A,/B,/^C/B,/A,/ (7:4:7^E,/^G,/B,/C/D/C/A,/ (7:4:7F,/=A,/^B,/^C/^D/C/B,/ (7:4:7=G,/^A,/C/=D/E/D/C/ | %105
 z8 | z8 |[I:staff -1] E>[I:staff +1]^A, B,2 B,4 |] %108
V:4
 x8 | x8 | x161/20 | x161/20 | x8 | x8 | x161/20 | z4 E2 ^D z | x8 | x8 | x8 | x8 | x8 | x8 | %14
 x161/20 | x161/20 | x8 | x8 | x161/20 | z4 A2 ^G z | x8 | x8 | x8 | x8 | x8 | x8 | x8 | x8 | x8 | %29
 x8 | x8 | x8 | x8 | x8 | x8 | x8 | x8 | x8 | x8 | x8 | x8 | x8 | x8 | x8 | x8 | x8 | x8 | x8 | %48
 x8 | x8 | x8 | x8 | x8 | x8 | x8 | x8 | x8 | x8 | x8 | x8 | x8 | x8 | x8 | x8 | x8 | x8 | x8 | %67
 x8 | x8 | x8 | x8 | x8 | x8 | x8 | x8 | x8 | x8 | x8 | x8 | x8 | x8 | x8 | x8 | x8 | x8 | x8 | %86
 x8 | x8 | x8 | x8 | x161/20 | x161/20 | x8 | x161/20 | x161/20 | x161/20 | z4 e4 | x8 | x161/20 | %99
 x161/20 | x8 | z4 e4 | x161/20 | z4 B2 !fermata!^A2 | x161/20 | x161/20 | x161/20 | x8 |] %108
V:5
 x8 | x8 | x161/20 | x161/20 | x8 | x8 | x161/20 | z4 B,,4 | x8 | x8 | x8 | x8 | x8 | x8 | %14
 x161/20 | x161/20 | x8 | x8 | x161/20 | x8 | x8 | x8 | x8 | x8 | z4 =A,2 G,>A, | %25
 B,>A, B,>B,, A,2 G, z | x8 | x8 | x8 | x8 | x8 | x8 | x8 | x8 | x8 | x8 | x8 | x8 | x8 | x8 | x8 | %41
 x8 | x8 | x8 | x8 | x8 | x8 | x8 | x8 | x8 | x8 | x8 | x8 | x8 | x8 | x8 | x8 | x8 | x8 | x8 | %60
 x8 | x8 | x8 | x8 | x8 | x8 | x8 | x8 | G,,2 z2 z4 | x8 | x8 | x8 | x8 | x8 | x8 | x8 | x8 | %77
 z4 z2 z/ B,/A,/=G,/ | x8 | x8 | x8 | x8 | x8 | x8 | x8 | x8 | x8 | x8 | x8 | z4 B,,4 | x161/20 | %91
 x161/20 | x8 | x161/20 | x161/20 | x161/20 | x8 | x8 | x161/20 | x161/20 | x8 | x8 | x161/20 | %103
 z4 !fermata!^C,4 | x161/20 | x161/20 | x161/20 | z2 B,>B,, E,4 |] %108
V:6
 x8 | x8 | x161/20 | x161/20 | x8 | x8 | x161/20 | x8 | x8 | x8 | x8 | x8 | x8 | x8 | x161/20 | %15
 x161/20 | x8 | x8 | x161/20 | z4 E4 | x8 | x8 | x8 | x8 | x8 | x8 | x8 | x8 | x8 | x8 | x8 | x8 | %32
 x8 | x8 | x8 | x8 | x8 | x8 | x8 | x8 | x8 | x8 | x8 | x8 | x8 | x8 | x8 | x8 | x8 | x8 | x8 | %51
 x8 | x8 | x8 | x8 | x8 | x8 | x8 | x8 | x8 | x8 | x8 | x8 | x8 | x8 | x8 | x8 | x8 | x8 | x8 | %70
 x8 | x8 | x8 | x8 | x8 | x8 | x8 | x8 | x8 | x8 | x8 | x8 | x8 | x8 | x8 | x8 | x8 | x8 | x8 | %89
 x8 | x161/20 | x161/20 | x8 | x161/20 | x161/20 | x161/20 | x8 | x8 | x161/20 | x161/20 | x8 | %101
 x8 | x161/20 | x8 | x161/20 | x161/20 | x161/20 | x8 |] %108
V:7
 x8 | x8 | x161/20 | x161/20 | x8 | x8 | x161/20 | x8 | x8 | x8 | x8 | x8 | x8 | x8 | x161/20 | %15
 x161/20 | x8 | x8 | x161/20 | x8 | x8 | x8 | x8 | x8 | x8 | z4 E,3 E, | x8 | x8 | x8 | x8 | x8 | %31
 x8 | x8 | x8 | x8 | x8 | x8 | x8 | x8 | x8 | x8 | x8 | x8 | x8 | x8 | x8 | x8 | x8 | x8 | x8 | %50
 x8 | x8 | x8 | x8 | x8 | x8 | x8 | x8 | x8 | x8 | x8 | x8 | x8 | x8 | x8 | x8 | x8 | x8 | x8 | %69
 x8 | x8 | x8 | x8 | x8 | x8 | x8 | x8 | x8 | x8 | x8 | x8 | x8 | x8 | x8 | x8 | x8 | x8 | x8 | %88
 x8 | x8 | x161/20 | x161/20 | x8 | x161/20 | x161/20 | x161/20 | x8 | x8 | x161/20 | x161/20 | %100
 x8 | x8 | x161/20 | x8 | x161/20 | x161/20 | x161/20 | x8 |] %108

